moji/lat.svg

<?xml version="1.0" encoding="UTF-8"?>
<!-- Created with Inkscape (http://www.inkscape.org/) -->
<svg width="78mm" height="62mm" version="1.1" viewBox="0 0 78 62" xmlns="http://www.w3.org/2000/svg">
 <g transform="translate(-2,-2708)">
  <svg y="2706" width="82" height="66" version="1.1" viewBox="0 0 82 66">
   <title>la</title>
   <g id="la" fill="none" fill-rule="evenodd">
    <g transform="translate(6,6)" fill="#ff4b4b" fill-rule="nonzero" stroke="#fff" stroke-width="4">
     <path d="m57.437-2h-44.874c-4.9348 0-6.6962 0.58451-8.4928 1.5453-1.9507 1.0433-3.4817 2.5742-4.5249 4.5249-0.96081 1.7966-1.5453 3.5579-1.5453 8.4928v28.874c0 4.9348 0.58451 6.6962 1.5453 8.4928 1.0433 1.9507 2.5742 3.4817 4.5249 4.5249 1.7966 0.96081 3.5579 1.5453 8.4928 1.5453h44.874c4.9348 0 6.6962-0.58451 8.4928-1.5453 1.9507-1.0433 3.4817-2.5742 4.5249-4.5249 0.96081-1.7966 1.5453-3.5579 1.5453-8.4928v-28.874c0-4.9348-0.58451-6.6962-1.5453-8.4928-1.0433-1.9507-2.5742-3.4817-4.5249-4.5249-1.7966-0.96081-3.5579-1.5453-8.4928-1.5453z"/>
    </g>
    <g transform="translate(19,15)">
     <g transform="translate(.80645 .096774)">
      <path d="m6.6949 12.137c-0.22436 1.0188-0.34262 2.0775-0.34262 3.1638 0 1.3426 0.18067 2.6431 0.51903 3.8783m5.169 7.7092c2.4761 1.9168 5.5834 3.0576 8.9571 3.0576 3.881 0.51781 7.1339 2.4782 9.7586 5.8813" stroke="#ffd300" stroke-linecap="round" stroke-linejoin="round" stroke-width="2.6452"/>
      <g fill="#ffd300">
       <path transform="rotate(-85,12.83,3.8174)" d="m9.3143 0.30128h0.58065c3.5631 0 6.4516 2.8885 6.4516 6.4516v0.58065h-0.58064c-3.5631 0-6.4516-2.8885-6.4516-6.4516z"/>
       <path transform="rotate(219 5.1265 9.1071)" d="m1.5136 5.4942h0.77419c3.5631 0 6.4516 2.8885 6.4516 6.4516v0.77419h-0.77419c-3.5631 0-6.4516-2.8885-6.4516-6.4516z"/>
       <path transform="rotate(162,7.5136,25.559)" d="m3.9007 21.946h0.77419c3.5631 0 6.4516 2.8885 6.4516 6.4516v0.77419h-0.77419c-3.5631 0-6.4516-2.8885-6.4516-6.4516z"/>
       <path transform="matrix(.46947 -.88295 -.88295 -.46947 26.418 43.966)" d="m8.0645 19.29h0.77419c3.5631 0 6.4516 2.8885 6.4516 6.4516v0.77419h-0.77419c-3.5631 0-6.4516-2.8885-6.4516-6.4516z"/>
       <path transform="rotate(-82,9.32,12.397)" d="m5.7071 8.7845h0.77419c3.5631 0 6.4516 2.8885 6.4516 6.4516v0.77419h-0.77419c-3.5631 0-6.4516-2.8885-6.4516-6.4516z"/>
      </g>
      <g transform="matrix(-1,0,0,1,42.387,0)">
       <path d="m6.6949 12.137c-0.22436 1.0188-0.34262 2.0775-0.34262 3.1638 0 1.3426 0.18067 2.6431 0.51903 3.8783m5.169 7.7092c2.4761 1.9168 5.5834 3.0576 8.9571 3.0576 3.881 0.51781 7.1339 2.4782 9.7586 5.8813" stroke="#ffd300" stroke-linecap="round" stroke-linejoin="round" stroke-width="2.6452"/>
       <g fill="#ffd300">
        <path transform="rotate(-85,12.83,3.8174)" d="m9.3143 0.30128h0.58065c3.5631 0 6.4516 2.8885 6.4516 6.4516v0.58065h-0.58064c-3.5631 0-6.4516-2.8885-6.4516-6.4516z"/>
        <path transform="rotate(219 5.1265 9.1071)" d="m1.5136 5.4942h0.77419c3.5631 0 6.4516 2.8885 6.4516 6.4516v0.77419h-0.77419c-3.5631 0-6.4516-2.8885-6.4516-6.4516z"/>
        <path transform="rotate(162,7.5136,25.559)" d="m3.9007 21.946h0.77419c3.5631 0 6.4516 2.8885 6.4516 6.4516v0.77419h-0.77419c-3.5631 0-6.4516-2.8885-6.4516-6.4516z"/>
        <path transform="matrix(.46947 -.88295 -.88295 -.46947 26.418 43.966)" d="m8.0645 19.29h0.77419c3.5631 0 6.4516 2.8885 6.4516 6.4516v0.77419h-0.77419c-3.5631 0-6.4516-2.8885-6.4516-6.4516z"/>
        <path transform="rotate(-82,9.32,12.397)" d="m5.7071 8.7845h0.77419c3.5631 0 6.4516 2.8885 6.4516 6.4516v0.77419h-0.77419c-3.5631 0-6.4516-2.8885-6.4516-6.4516z"/>
       </g>
      </g>
     </g>
    </g>
   </g>
  </svg>
 </g>
</svg>

<?xml version="1.0" encoding="UTF-8" standalone="no"?>
<!-- Created with Inkscape (http://www.inkscape.org/) -->

<svg
   width="78mm"
   height="62mm"
   viewBox="0 0 78 62"
   version="1.1"
   id="svg2820"
   xmlns="http://www.w3.org/2000/svg"
   xmlns:svg="http://www.w3.org/2000/svg">
  <defs
     id="defs2817" />
  <g
     id="layer1"
     transform="translate(-2,-2708)">
    <svg
       y="2706"
       width="82"
       height="66"
       version="1.1"
       viewBox="0 0 82 66"
       id="svg973">
      <title
         id="title932">la</title>
      <g
         id="la"
         fill="none"
         fill-rule="evenodd">
        <g
           transform="translate(6,6)"
           fill="#ff4b4b"
           fill-rule="nonzero"
           stroke="#ffffff"
           stroke-width="4"
           id="g936">
          <path
             d="M 57.437,-2 H 12.563 C 7.6282,-2 5.8668,-1.41549 4.0702,-0.4547 2.1195,0.5886 0.5885,2.1195 -0.4547,4.0702 -1.41551,5.8668 -2,7.6281 -2,12.563 v 28.874 c 0,4.9348 0.58451,6.6962 1.5453,8.4928 1.0433,1.9507 2.5742,3.4817 4.5249,4.5249 C 5.8668,55.41551 7.6281,56 12.563,56 h 44.874 c 4.9348,0 6.6962,-0.58451 8.4928,-1.5453 1.9507,-1.0433 3.4817,-2.5742 4.5249,-4.5249 C 71.41551,48.1332 72,46.3719 72,41.437 V 12.563 C 72,7.6282 71.41549,5.8668 70.4547,4.0702 69.4114,2.1195 67.8805,0.5885 65.9298,-0.4547 64.1332,-1.41551 62.3719,-2 57.437,-2 Z"
             id="path934" />
        </g>
        <g
           transform="translate(19,15)"
           id="g970">
          <g
             transform="translate(0.80645,0.096774)"
             id="g968">
            <path
               d="m 6.6949,12.137 c -0.22436,1.0188 -0.34262,2.0775 -0.34262,3.1638 0,1.3426 0.18067,2.6431 0.51903,3.8783 m 5.169,7.7092 c 2.4761,1.9168 5.5834,3.0576 8.9571,3.0576 3.881,0.51781 7.1339,2.4782 9.7586,5.8813"
               stroke="#ffd300"
               stroke-linecap="round"
               stroke-linejoin="round"
               stroke-width="2.6452"
               id="path938" />
            <g
               fill="#ffd300"
               id="g950">
              <path
                 transform="rotate(-85,12.83,3.8174)"
                 d="m 9.3143,0.30128 h 0.58065 c 3.5631,0 6.4516,2.8885 6.4516,6.4516 v 0.58065 h -0.58064 c -3.5631,0 -6.4516,-2.8885 -6.4516,-6.4516 z"
                 id="path940" />
              <path
                 transform="rotate(-141,5.1265,9.1071)"
                 d="m 1.5136,5.4942 h 0.77419 c 3.5631,0 6.4516,2.8885 6.4516,6.4516 v 0.77419 H 7.9652 c -3.5631,0 -6.4516,-2.8885 -6.4516,-6.4516 z"
                 id="path942" />
              <path
                 transform="rotate(162,7.5136,25.559)"
                 d="m 3.9007,21.946 h 0.77419 c 3.5631,0 6.4516,2.8885 6.4516,6.4516 v 0.77419 H 10.3523 c -3.5631,0 -6.4516,-2.8885 -6.4516,-6.4516 z"
                 id="path944" />
              <path
                 transform="matrix(0.46947,-0.88295,-0.88295,-0.46947,26.418,43.966)"
                 d="m 8.0645,19.29 h 0.77419 c 3.5631,0 6.4516,2.8885 6.4516,6.4516 v 0.77419 H 14.5161 c -3.5631,0 -6.4516,-2.8885 -6.4516,-6.4516 z"
                 id="path946" />
              <path
                 transform="rotate(-82,9.32,12.397)"
                 d="m 5.7071,8.7845 h 0.77419 c 3.5631,0 6.4516,2.8885 6.4516,6.4516 v 0.77419 H 12.1587 c -3.5631,0 -6.4516,-2.8885 -6.4516,-6.4516 z"
                 id="path948" />
            </g>
            <g
               transform="matrix(-1,0,0,1,42.387,0)"
               id="g966">
              <path
                 d="m 6.6949,12.137 c -0.22436,1.0188 -0.34262,2.0775 -0.34262,3.1638 0,1.3426 0.18067,2.6431 0.51903,3.8783 m 5.169,7.7092 c 2.4761,1.9168 5.5834,3.0576 8.9571,3.0576 3.881,0.51781 7.1339,2.4782 9.7586,5.8813"
                 stroke="#ffd300"
                 stroke-linecap="round"
                 stroke-linejoin="round"
                 stroke-width="2.6452"
                 id="path952" />
              <g
                 fill="#ffd300"
                 id="g964">
                <path
                   transform="rotate(-85,12.83,3.8174)"
                   d="m 9.3143,0.30128 h 0.58065 c 3.5631,0 6.4516,2.8885 6.4516,6.4516 v 0.58065 h -0.58064 c -3.5631,0 -6.4516,-2.8885 -6.4516,-6.4516 z"
                   id="path954" />
                <path
                   transform="rotate(-141,5.1265,9.1071)"
                   d="m 1.5136,5.4942 h 0.77419 c 3.5631,0 6.4516,2.8885 6.4516,6.4516 v 0.77419 H 7.9652 c -3.5631,0 -6.4516,-2.8885 -6.4516,-6.4516 z"
                   id="path956" />
                <path
                   transform="rotate(162,7.5136,25.559)"
                   d="m 3.9007,21.946 h 0.77419 c 3.5631,0 6.4516,2.8885 6.4516,6.4516 v 0.77419 H 10.3523 c -3.5631,0 -6.4516,-2.8885 -6.4516,-6.4516 z"
                   id="path958" />
                <path
                   transform="matrix(0.46947,-0.88295,-0.88295,-0.46947,26.418,43.966)"
                   d="m 8.0645,19.29 h 0.77419 c 3.5631,0 6.4516,2.8885 6.4516,6.4516 v 0.77419 H 14.5161 c -3.5631,0 -6.4516,-2.8885 -6.4516,-6.4516 z"
                   id="path960" />
                <path
                   transform="rotate(-82,9.32,12.397)"
                   d="m 5.7071,8.7845 h 0.77419 c 3.5631,0 6.4516,2.8885 6.4516,6.4516 v 0.77419 H 12.1587 c -3.5631,0 -6.4516,-2.8885 -6.4516,-6.4516 z"
                   id="path962" />
              </g>
            </g>
          </g>
        </g>
      </g>
    </svg>
  </g>
</svg>
